!!!COM: Fux, Johann Joseph
!!!OMD: Gradus ad Parnassum Exercise
!!!YEC: CC0 1.0 Universal (Public Domain). Mark Gotham and FourScoreAndMore.org waive all rights to this document.
**kern	**kern	**kern	**kern
*part4	*part3	*part2	*part1
*staff4	*staff3	*staff2	*staff1
*I"4	*I"3	*I"2	*I"1
*I'Pno	*I'Pno	*I'Pno	*I'Pno
!!LO:PB:g=z
*clefF4	*clefGv2	*clefG2	*clefG2
*k[]	*k[]	*k[]	*k[]
!!LO:TX:omd:t=
*M4/4	*M4/4	*M4/4	*M4/4
=34	=34	=34	=34
!	!	!	!LO:TX:a:t=Fig. 165; Species&colon; 1; Modal final&colon; d; Cantus firmus&colon; 4
1D	1d	1f	1a
=35	=35	=35	=35
1F	1d	1f	1a
=36	=36	=36	=36
1E	1G	1g	1cc#X
=37	=37	=37	=37
1D	1A	1f	1dd
=38	=38	=38	=38
1G	1B-X	1d	1b-X
=39	=39	=39	=39
1F	1c	1f	1a
=40	=40	=40	=40
1A	1c	1e	1a
=41	=41	=41	=41
1G	1d	1g	1b
=42	=42	=42	=42
1F	1D	1a	1dd
=43	=43	=43	=43
1E	1G	1g	1cc#X
=44	=44	=44	=44
1D	1G	1f#X	1dd
==	==	==	==
*-	*-	*-	*-
!!!software: music21 v.9.7.1
!!!software: music21 v.9.7.1
!!!software: MuseScore 3.4.2
!!!RDF**kern: > = above
!!!RDF**kern: < = below
